X:1005
T:Reel Pointe-au-Pic
R:reel
H:Tune originates from the schottische "Four Little Blackberries", recorded by
H:Thomas Mills in 1907, composed by Lawrence B. O'Connor
D:Joe Bouchard
O:Quebec
Z:id:hn-reel-1005
M:C|
L:1/8
K:C
geg | decd BcAB | GGG2-G geg | decd BcAc | BBB2-B geg | 
decd BcAc | BBB2-B g^fg | ag^fg agec | GGG2-G geg | 
decd BcAB | GGG2-G GAB | c2Bc d2c2 | A4-A GAB | 
c2Bc d2cd | eceg a3e | g2f2-f dAB |1 c4-c :|2 c4 B4 || 
|: A2AB cBcd | eaae a2aa | eaae a2aa | eaae a2aA | 
G3A BGBd | ggg2-g GBd | ggg2-g GBd | g^fga g=fed | 
A3B cBcd | eaae a2aa | eaae a2aa | eaae a2b2 | 
c'4 c'2ef | g^fga gecd | egec dedB |1 c4 B4 :|2 c4-c ||

